!!!SOCIAL_FUNCTION:	bird dance songs
!!!PDT:	1956
!!!OTL: No_151_Switchgrass_Dance_Song_(a).krn
!!!LANG: Non-Tone
!!!LING_GROUP: Muskogean
!!!REG: Florida
**kern
*staff1
=1-
=
*clefF4
*k[b-e-a-]
*M3/4
8.B-\L
16G\Jk
8.B-\L
16G\Jk
4F\
=2
8.B-\L
16G\Jk
8.F\L
16E-\Jk
8C/
8r
=3||
*M2/4
8E-\L
16.C\L
32G\JJk
4C/
=4
8C/
8r
8.C/L
16C/Jk
=5
8.G\L
16G\Jk
4F\
=6||
*M3/4
8E-\L
16.C\L
32E-\JJk
4C/
4C/
==:|!
*-
